public/JobsIcon.svg

<svg width='101' height='129' viewBox='0 0 101 129' fill='none' xmlns='http://www.w3.org/2000/svg'><g clip-path='url(#clip0_9_29429)'><path d='M37.4339 122.262C34.2493 122.28 31.1151 121.47 28.3412 119.91C19.1816 114.746 13.917 101.982 13.917 84.8881C13.917 55.3703 29.8126 21.812 49.3502 10.0785C57.4353 5.21903 65.4885 4.5712 72.0166 8.2495C81.1762 13.4104 86.4408 26.1772 86.4408 43.2687C86.4408 72.7894 70.5452 106.348 51.0105 118.078C46.9511 120.678 42.2571 122.125 37.4339 122.262ZM62.8918 9.0727C58.6632 9.22283 54.5555 10.5191 51.0105 12.822C32.3336 24.0424 17.1345 56.3689 17.1345 84.8851C17.1345 100.553 21.9164 112.603 29.9289 117.112C35.4828 120.241 42.1998 119.625 49.3531 115.328C68.0299 104.11 83.2291 71.785 83.2291 43.2644C83.2291 27.5961 78.4472 15.551 70.4347 11.0379C68.1353 9.73915 65.5347 9.06311 62.8918 9.07705V9.0727Z' fill='#1B69FF'/><path opacity='0.33' d='M23.5135 116.366C20.3296 116.386 17.1956 115.576 14.4223 114.017C5.25246 108.853 -0.00195312 96.0893 -0.00195312 78.9949C-0.00195312 49.4772 15.8907 15.916 35.4283 4.18251C43.5135 -0.676961 51.5667 -1.3248 58.0947 2.35351C67.2543 7.51443 72.5189 20.2812 72.5189 37.3756C72.5189 66.8934 56.6233 100.455 37.0887 112.185C33.0296 114.784 28.3359 116.23 23.5135 116.366ZM37.0901 6.93038C18.4132 18.1479 3.21409 50.4772 3.21409 78.9935C3.21409 94.6618 7.99162 106.711 15.9997 111.22C21.5537 114.346 28.2707 113.73 35.4239 109.436C54.1008 98.2184 69.3 65.889 69.3 37.3727C69.3 21.7001 64.5181 9.65504 56.5056 5.14629C50.9517 2.02017 44.2346 2.63612 37.0843 6.93038H37.0901Z' fill='#1B69FF'/><path d='M64.8961 18.1278C45.7772 29.612 30.2451 62.5283 30.2451 91.5634C30.2451 120.599 45.7772 134.862 64.8961 123.378C84.0149 111.894 99.5471 78.9778 99.5471 49.9427C99.5471 20.9076 84.0135 6.64944 64.8961 18.1278Z' fill='white' stroke='black' stroke-width='2'/><path d='M66.1733 41.2916C63.8863 42.6611 62.0326 46.5931 62.0326 50.0641C62.0326 53.5352 63.8863 55.2352 66.1733 53.8656C68.4603 52.496 70.314 48.5641 70.314 45.0931C70.314 41.622 68.4603 39.9176 66.1733 41.2916ZM60.6484 65.5614V69.7557L62.0267 68.9252L63.405 68.0948V95.3414L62.0267 96.1675L60.6484 96.998V101.188L62.0267 100.362L63.405 99.5314L68.9299 96.2154L70.3082 95.3849L71.6865 94.5588V90.3646L70.3082 91.195L68.9299 92.0255V60.5918L67.5472 61.4222L62.0224 64.7339L60.6484 65.5614Z' fill='#27292B'/></g><defs><clipPath id='clip0_9_29429'><rect width='101' height='129' fill='white'/></clipPath></defs></svg>

<svg xmlns="http://www.w3.org/2000/svg" width="101" height="129" fill="none" viewBox="0 0 101 129"><g clip-path="url(#a)"><path fill="#1b69ff" d="M37.434 122.262a18.34 18.34 0 0 1-9.093-2.352c-9.16-5.164-14.424-17.928-14.424-35.022 0-29.518 15.896-63.076 35.433-74.81C57.435 5.22 65.49 4.572 72.017 8.25c9.16 5.16 14.424 17.927 14.424 35.019 0 29.52-15.896 63.079-35.43 74.809a26.57 26.57 0 0 1-13.577 4.184M62.892 9.072a23.33 23.33 0 0 0-11.882 3.75c-18.676 11.22-33.875 43.547-33.875 72.063 0 15.668 4.781 27.718 12.794 32.227 5.554 3.129 12.27 2.513 19.424-1.784C68.03 104.11 83.23 71.785 83.23 43.264c0-15.668-4.782-27.713-12.794-32.226a15.2 15.2 0 0 0-7.543-1.961z"/><path fill="#1b69ff" d="M23.514 116.366a18.3 18.3 0 0 1-9.092-2.349C5.252 108.853-.002 96.089-.002 78.995c0-29.518 15.893-63.079 35.43-74.812 8.086-4.86 16.139-5.508 22.667-1.83 9.16 5.161 14.424 17.928 14.424 35.023 0 29.517-15.896 63.079-35.43 74.809a26.57 26.57 0 0 1-13.575 4.181M37.09 6.93C18.413 18.148 3.214 50.477 3.214 78.994c0 15.668 4.778 27.717 12.786 32.226 5.554 3.126 12.27 2.51 19.424-1.784C54.1 98.218 69.3 65.889 69.3 37.373c0-15.673-4.782-27.718-12.794-32.227-5.554-3.126-12.271-2.51-19.422 1.784z" opacity=".33"/><path fill="#fff" stroke="#000" stroke-width="2" d="M64.896 18.128c-19.119 11.484-34.65 44.4-34.65 73.435s15.531 43.299 34.65 31.815 34.651-44.4 34.651-73.435-15.534-43.294-34.65-31.815Z"/><path fill="#27292b" d="M66.173 41.292c-2.287 1.37-4.14 5.301-4.14 8.772s1.853 5.171 4.14 3.802 4.141-5.302 4.141-8.773-1.854-5.175-4.14-3.801m-5.525 24.27v4.194l1.379-.83 1.378-.831V95.34l-1.378.827-1.379.83v4.19l1.379-.826 1.378-.83 5.525-3.317 1.378-.83 1.378-.826v-4.194l-1.378.83-1.378.83V60.592l-1.383.83-5.525 3.312z"/></g><defs><clipPath id="a"><path fill="#fff" d="M0 0h101v129H0z"/></clipPath></defs></svg>
